Sources/FrostedUI/Resources/Icons.xcassets/eyeSlashed32.imageset/eye-slashed-32.svg

<svg width="32" height="32" viewBox="0 0 32 32" fill="none" xmlns="http://www.w3.org/2000/svg" data-fui-icon="true">
  <path
    d="M26.7192 4.21973C27.0121 3.92694 27.4869 3.92708 27.7798 4.21973C28.0726 4.51261 28.0726 4.98739 27.7798 5.28027L21.4497 11.6094C22.4184 12.8103 22.9995 14.337 22.9995 16C22.9995 19.866 19.8655 23 15.9995 23C14.3367 22.9999 12.8097 22.4188 11.6089 21.4502L5.27979 27.7803C4.98688 28.0729 4.51206 28.0731 4.21924 27.7803C3.92666 27.4874 3.92666 27.0126 4.21924 26.7197L10.5483 20.3896C9.58027 19.1889 8.99951 17.6625 8.99951 16C8.99951 12.1342 12.1337 9.00025 15.9995 9C17.6619 9.00001 19.1884 9.5808 20.3892 10.5488L26.7192 4.21973ZM25.7046 8.77051C25.9904 8.47084 26.4654 8.45949 26.7651 8.74512C29.8026 11.642 31.5417 14.9171 31.8667 15.5576C32.0093 15.8387 32.0093 16.1613 31.8667 16.4424C31.5641 17.0389 30.0454 19.9002 27.4038 22.6221C24.7654 25.3405 20.9264 28 15.9995 28C13.5628 27.9999 11.3869 27.3481 9.49365 26.3594C9.12683 26.1676 8.98474 25.7137 9.17627 25.3467C9.36804 24.9799 9.82101 24.8379 10.188 25.0293C11.9003 25.9235 13.8395 26.4999 15.9995 26.5C20.3552 26.5 23.8305 24.1501 26.3276 21.5771C28.5596 19.2773 29.945 16.8616 30.4048 15.999C29.9037 15.0593 28.3106 12.2912 25.73 9.83008C25.4306 9.54432 25.4192 9.0702 25.7046 8.77051ZM15.9995 4C18.4363 4.00001 20.6121 4.65195 22.5054 5.64062C22.8725 5.83237 23.0145 6.28616 22.8228 6.65332C22.6309 7.0201 22.178 7.16225 21.811 6.9707C20.0987 6.07656 18.1595 5.50001 15.9995 5.5C11.6439 5.50017 8.16846 7.84992 5.67139 10.4229C3.43967 12.7225 2.0532 15.1373 1.59326 16C2.09355 16.9384 3.68733 19.7077 6.26904 22.1699C6.56861 22.4557 6.58001 22.9298 6.29443 23.2295C6.00854 23.529 5.53356 23.5407 5.23389 23.2549C2.19577 20.3573 0.455663 17.0817 0.131348 16.4424C-0.0110802 16.1614 -0.0110746 15.8385 0.131348 15.5576L0.302246 15.2334C0.831381 14.2497 2.28316 11.7603 4.59521 9.37793C7.23357 6.65948 11.0727 4.00017 15.9995 4ZM12.6772 20.3818C13.6003 21.0827 14.7511 21.4999 15.9995 21.5C19.037 21.5 21.4995 19.0375 21.4995 16C21.4995 14.7514 21.0823 13.6009 20.3813 12.6777L12.6772 20.3818ZM15.9995 10.5C12.9622 10.5003 10.4995 12.9626 10.4995 16C10.4995 17.248 10.9163 18.3984 11.6167 19.3213L19.3208 11.6172C18.3979 10.9168 17.2474 10.5 15.9995 10.5Z"
    fill="currentColor"
  />
</svg>

<svg xmlns="http://www.w3.org/2000/svg" width="32" height="32" fill="none" data-fui-icon="true" viewBox="0 0 32 32"><path fill="currentColor" d="M26.72 4.22a.75.75 0 0 1 1.06 1.06l-6.33 6.33a7 7 0 0 1-9.84 9.84l-6.33 6.33a.75.75 0 0 1-1.06-1.06l6.328-6.33a7 7 0 0 1 9.84-9.84zm-1.015 4.55a.75.75 0 0 1 1.06-.025c3.038 2.897 4.777 6.172 5.102 6.813a.97.97 0 0 1 0 .884c-.303.597-1.822 3.458-4.463 6.18C24.765 25.34 20.926 28 16 28c-2.437 0-4.613-.652-6.506-1.64a.751.751 0 0 1 .694-1.33c1.712.893 3.651 1.47 5.811 1.47 4.356 0 7.832-2.35 10.329-4.923A25.9 25.9 0 0 0 30.405 16c-.501-.94-2.094-3.708-4.675-6.169a.75.75 0 0 1-.025-1.06M16 4c2.436 0 4.612.652 6.505 1.64a.75.75 0 0 1-.694 1.33c-1.712-.893-3.651-1.47-5.812-1.47-4.355 0-7.83 2.35-10.328 4.923A26 26 0 0 0 1.593 16c.5.938 2.094 3.708 4.676 6.17a.75.75 0 1 1-1.035 1.085C2.196 20.357.456 17.082.13 16.442a.97.97 0 0 1 0-.884l.171-.325a27.4 27.4 0 0 1 4.293-5.855C7.234 6.659 11.073 4 16 4m-3.323 16.382a5.5 5.5 0 0 0 7.704-7.704zM16 10.5a5.5 5.5 0 0 0-4.383 8.821l7.704-7.704a5.48 5.48 0 0 0-3.322-1.117"/></svg>
